digital/Imbassy-X-Files/65ef0811cc67439994568a45/65ef0811cc67439994568f2f_grata.svg

<svg fill="none" height="56" viewBox="0 0 256 56" width="256" xmlns="http://www.w3.org/2000/svg"><path d="m72.1693 21.2422h7.6898v-7.5423c.0004-1.5472-.6099-3.0322-1.6984-4.13258-.5388-.54519-1.1802-.97856-1.8873-1.27519s-1.4659-.45067-2.2327-.45326h-15.2066c-.7684.00576-1.5278.16607-2.233.47139-.7072.28793-1.349.71548-1.887 1.25706-.5341.55008-.9607 1.19488-1.2581 1.90128-.3005.7111-.4556 1.4751-.456 2.247v15.2418c.0031.765.1526 1.5223.4403 2.2312.2973.7103.7299 1.356 1.2738 1.9013.538.5416 1.1798.9692 1.887 1.2571.7073.2949 1.4667.4446 2.233.44h7.5011v-7.6995c-.0021-.7648.1469-1.5225.4384-2.2297.2914-.7072.7197-1.35 1.2602-1.8915s1.1826-.9712 1.8896-1.2643c.7069-.2932 1.4648-.4441 2.2302-.4441" fill="#fff"/><path d="m87.3609 21.2432h-7.501v7.7151c-.0042 1.5421-.618 3.0202-1.7078 4.1121-1.0899 1.0919-2.5674 1.7092-4.1107 1.7175h-7.7054v7.6209c-.0021.7648.1469 1.5225.4383 2.2297.2915.7072.7198 1.35 1.2603 1.8915s1.1826.9712 1.8895 1.2643c.707.2932 1.4649.4441 2.2303.4441h15.1908c.7646.0015 1.5221-.1476 2.2291-.4388.7069-.2911 1.3495-.7187 1.8909-1.2582.5439-.5453.9765-1.1911 1.2738-1.9013.2877-.7089.4372-1.4663.4403-2.2313v-15.2418c-.0031-.765-.1526-1.5223-.4403-2.2312-.2973-.7103-.7299-1.356-1.2738-1.9013-.5414-.5395-1.184-.9671-1.8909-1.2583-.707-.2912-1.4645-.4403-2.2291-.4388" fill="#fff"/><path d="m79.8588 28.9583v-7.7151h-7.6898c-.7654 0-1.5233.1509-2.2302.444-.707.2932-1.3491.7228-1.8896 1.2644-.5405.5415-.9687 1.1843-1.2602 1.8915-.2915.7071-.4405 1.4648-.4384 2.2297v7.7151h7.6898c1.5433-.0083 3.0208-.6256 4.1106-1.7175s1.7037-2.57 1.7078-4.1121z" fill="#090a0b"/><g fill="#fff"><path d="m93.1949 12.2239c.0042.8726-.2532 1.7263-.7391 2.4513-.4841.7076-1.1685 1.2547-1.9657 1.5713-.7929.3254-1.6646.408-2.5046.2374-.84-.1707-1.6102-.5869-2.213-1.1959-.5962-.6107-1.0026-1.3808-1.1701-2.2174-.1674-.8366-.0887-1.7037.2266-2.4965.2749-.66521.71-1.25222 1.2666-1.70889.5566-.45666 1.2175-.76884 1.924-.90878s1.4366-.10331 2.1255.10665c.6889.20995 1.3152.58671 1.8232 1.0968.4134.41178.7403.90182.9617 1.44142.2214.5397.3329 1.118.3278 1.7012"/><path d="m131.927 26.9629v13.6077h-4.199v-5.5625c-1.573 5.0125-5.85 5.9239-8.885 5.9239-1.708.0022-3.398-.343-4.968-1.0146-1.57-.6717-2.987-1.6557-4.164-2.892-1.177-1.2364-2.089-2.6993-2.682-4.2996s-.854-3.3044-.766-5.0086c0-7.8566 5.724-13.1205 13.618-13.1205 5.724 0 10.504 3.1426 11.747 8.4851l-4.403 1.9484c-1.085-4.2268-3.271-6.0495-7.611-6.0495-5.426 0-8.429 2.4669-8.429 8.7522s2.406 9.0508 8.664 9.0508c3.979 0 6.967-1.9799 7.439-5.751h-7.313v-4.0698z"/><path d="m147.353 22.6113v4.384c-.778-.2649-1.603-.3665-2.422-.2985-2.909 0-4.954 1.9798-4.954 6.5052v7.4323h-4.717v-17.9915h4.702v5.0753c.471-2.7027 1.792-5.3739 5.205-5.3739.738-.0401 1.478.0504 2.186.2671z"/><path d="m162.843 31.6456c0-3.5826-1.494-5.1696-4.954-5.1696-3.459 0-4.859 1.5713-4.859 5.1696s1.573 5.0754 4.859 5.0754c3.287 0 4.954-1.5713 4.954-5.0754zm4.482-9.0036v17.9287h-4.624v-3.9126c-.437 1.301-1.289 2.423-2.425 3.1947-1.136.7718-2.493 1.1508-3.865 1.0793-5.095 0-8.114-3.724-8.114-9.2865 0-5.5624 2.909-9.4279 7.863-9.4279 1.43-.0696 2.843.3305 4.025 1.1392 1.181.8086 2.065 1.9813 2.516 3.3391v-4.054z"/><path d="m178.049 26.6955v9.7264h4.718v4.1012h-3.806c-.739.0415-1.48-.0742-2.171-.3397-.692-.2655-1.319-.6747-1.841-1.2004-.522-.5258-.926-1.1562-1.186-1.8496s-.369-1.4339-.321-2.1728v-8.2651h-3.428v-4.054h3.428v-5.3739h4.623v5.3425h5.174v4.0854z"/><path d="m132.005 26.9629v13.6077h-4.199v-5.5625c-1.572 5.0125-5.881 5.9239-8.901 5.9239-1.707.0022-3.398-.343-4.968-1.0146-1.569-.6717-2.986-1.6557-4.163-2.892-1.177-1.2364-2.09-2.6993-2.683-4.2996s-.853-3.3044-.766-5.0086c0-7.8566 5.74-13.1205 13.634-13.1205 5.724 0 10.489 3.1426 11.731 8.4851l-4.403 1.9484c-1.101-4.2268-3.286-6.0495-7.627-6.0495-5.425 0-8.397 2.4669-8.397 8.7522s2.406 9.0508 8.68 9.0508c3.979 0 6.967-1.9799 7.423-5.751h-7.313v-4.0698z"/><path d="m147.352 22.61v4.3839c-.758-.2563-1.56-.3579-2.359-.2985-2.909 0-4.953 1.9799-4.953 6.5053v7.4323h-4.718v-17.9916h4.718v5.0754c.456-2.7027 1.777-5.374 5.205-5.374.713-.0309 1.425.0594 2.107.2672z"/><path d="m162.905 31.645c0-3.5826-1.573-5.1696-4.954-5.1696s-4.843 1.5713-4.843 5.1696 1.573 5.0753 4.843 5.0753c3.271 0 4.954-1.5713 4.954-5.0753zm4.482-9.0037v17.9288h-4.639v-3.9126c-.433 1.2822-1.268 2.3907-2.381 3.1607-1.114.77-2.446 1.1605-3.799 1.1133-5.111 0-8.13-3.724-8.13-9.2865s2.909-9.4279 7.862-9.4279c1.416-.0565 2.812.3503 3.976 1.1585 1.163.8083 2.031 1.9738 2.472 3.3197v-4.054z"/><path d="m178.128 26.6955v9.7264h4.717v4.1012h-3.821c-.74.0413-1.481-.0745-2.174-.3399-.692-.2653-1.32-.6742-1.843-1.1996-.523-.5255-.929-1.1557-1.191-1.8491-.261-.6934-.373-1.4343-.327-2.1739v-8.2651h-3.428v-4.054h3.428v-5.3739h4.639v5.3425h5.158v4.0854z"/><path d="m199.483 31.6457c0-3.5826-1.572-5.1697-4.953-5.1697s-4.844 1.5714-4.844 5.1697 1.573 5.0753 4.844 5.0753c3.27 0 4.953-1.5713 4.953-5.0753zm4.482-9.0037v17.9288h-4.623v-3.9126c-.434 1.2848-1.271 2.3952-2.388 3.1655-1.116.7703-2.452 1.1591-3.808 1.1085-5.111 0-8.13-3.7241-8.13-9.2865 0-5.5625 2.909-9.4279 7.862-9.4279 1.418-.0548 2.815.3524 3.981 1.1602 1.165.8077 2.037 1.9723 2.483 3.318v-4.054z"/></g></svg>

<svg width="256" height="56" viewBox="0 0 256 56" fill="none" xmlns="http://www.w3.org/2000/svg">
<path d="M72.1693 21.2422H79.8591V13.6999C79.8595 12.1527 79.2492 10.6677 78.1607 9.56732C77.6219 9.02213 76.9805 8.58876 76.2734 8.29213C75.5663 7.9955 74.8075 7.84146 74.0407 7.83887L58.8341 7.83887C58.0657 7.84463 57.3063 8.00494 56.6011 8.31026C55.8939 8.59819 55.2521 9.02574 54.7141 9.56732C54.18 10.1174 53.7534 10.7622 53.456 11.4686C53.1555 12.1797 53.0004 12.9437 53 13.7156V28.9574C53.0031 29.7224 53.1526 30.4797 53.4403 31.1886C53.7376 31.8989 54.1702 32.5446 54.7141 33.0899C55.2521 33.6315 55.8939 34.0591 56.6011 34.347C57.3084 34.6419 58.0678 34.7916 58.8341 34.787H66.3352V27.0875C66.3331 26.3227 66.4821 25.565 66.7736 24.8578C67.065 24.1506 67.4933 23.5078 68.0338 22.9663C68.5743 22.4248 69.2164 21.9951 69.9234 21.702C70.6303 21.4088 71.3882 21.2579 72.1536 21.2579" fill="white"/>
<path d="M87.3609 21.2432H79.8599V28.9583C79.8557 30.5004 79.2419 31.9785 78.1521 33.0704C77.0622 34.1623 75.5847 34.7796 74.0414 34.7879H66.336V42.4088C66.3339 43.1736 66.4829 43.9313 66.7743 44.6385C67.0658 45.3457 67.4941 45.9885 68.0346 46.53C68.5751 47.0715 69.2172 47.5012 69.9241 47.7943C70.6311 48.0875 71.389 48.2384 72.1544 48.2384H87.3452C88.1098 48.2399 88.8673 48.0908 89.5743 47.7996C90.2812 47.5085 90.9238 47.0809 91.4652 46.5414C92.0091 45.9961 92.4417 45.3503 92.739 44.6401C93.0267 43.9312 93.1762 43.1738 93.1793 42.4088V27.167C93.1762 26.402 93.0267 25.6447 92.739 24.9358C92.4417 24.2255 92.0091 23.5798 91.4652 23.0345C90.9238 22.495 90.2812 22.0674 89.5743 21.7762C88.8673 21.485 88.1098 21.3359 87.3452 21.3374" fill="white"/>
<path d="M79.8588 28.9583V21.2432H72.169C71.4036 21.2432 70.6457 21.3941 69.9388 21.6872C69.2318 21.9804 68.5897 22.41 68.0492 22.9516C67.5087 23.4931 67.0805 24.1359 66.789 24.8431C66.4975 25.5502 66.3485 26.3079 66.3506 27.0728V34.7879H74.0404C75.5837 34.7796 77.0612 34.1623 78.151 33.0704C79.2408 31.9785 79.8547 30.5004 79.8588 28.9583Z" fill="#090A0B"/>
<path d="M93.1949 12.2239C93.1991 13.0965 92.9417 13.9502 92.4558 14.6752C91.9717 15.3828 91.2873 15.9299 90.4901 16.2465C89.6972 16.5719 88.8255 16.6545 87.9855 16.4839C87.1455 16.3132 86.3753 15.897 85.7725 15.288C85.1763 14.6773 84.7699 13.9072 84.6024 13.0706C84.435 12.234 84.5137 11.3669 84.829 10.5741C85.1039 9.90889 85.539 9.32188 86.0956 8.86521C86.6522 8.40855 87.3131 8.09637 88.0196 7.95643C88.7261 7.81649 89.4562 7.85312 90.1451 8.06308C90.834 8.27303 91.4603 8.64979 91.9683 9.15988C92.3817 9.57166 92.7086 10.0617 92.93 10.6013C93.1514 11.141 93.2629 11.7193 93.2578 12.3025" fill="white"/>
<path d="M131.927 26.9629V40.5706H127.728V35.0081C126.155 40.0206 121.878 40.932 118.843 40.932C117.135 40.9342 115.445 40.589 113.875 39.9174C112.305 39.2457 110.888 38.2617 109.711 37.0254C108.534 35.789 107.622 34.3261 107.029 32.7258C106.436 31.1255 106.175 29.4214 106.263 27.7172C106.263 19.8606 111.987 14.5967 119.881 14.5967C125.605 14.5967 130.385 17.7393 131.628 23.0818L127.225 25.0302C126.14 20.8034 123.954 18.9807 119.614 18.9807C114.188 18.9807 111.185 21.4476 111.185 27.7329C111.185 34.0182 113.591 36.7837 119.849 36.7837C123.828 36.7837 126.816 34.8038 127.288 31.0327H119.975V26.9629H131.927Z" fill="white"/>
<path d="M147.353 22.6113V26.9953C146.575 26.7304 145.75 26.6288 144.931 26.6968C142.022 26.6968 139.977 28.6766 139.977 33.202V40.6343H135.26V22.6428H139.962V27.7181C140.433 25.0154 141.754 22.3442 145.167 22.3442C145.905 22.3041 146.645 22.3946 147.353 22.6113Z" fill="white"/>
<path d="M162.843 31.6456C162.843 28.063 161.349 26.476 157.889 26.476C154.43 26.476 153.03 28.0473 153.03 31.6456C153.03 35.2439 154.603 36.721 157.889 36.721C161.176 36.721 162.843 35.1497 162.843 31.6456ZM167.325 22.642V40.5707H162.701V36.6581C162.264 37.9591 161.412 39.0811 160.276 39.8528C159.14 40.6246 157.783 41.0036 156.411 40.9321C151.316 40.9321 148.297 37.2081 148.297 31.6456C148.297 26.0832 151.206 22.2177 156.16 22.2177C157.59 22.1481 159.003 22.5482 160.185 23.3569C161.366 24.1655 162.25 25.3382 162.701 26.696V22.642H167.325Z" fill="white"/>
<path d="M178.049 26.6955V36.4219H182.767V40.5231H178.961C178.222 40.5646 177.481 40.4489 176.79 40.1834C176.098 39.9179 175.471 39.5087 174.949 38.983C174.427 38.4572 174.023 37.8268 173.763 37.1334C173.503 36.44 173.394 35.6995 173.442 34.9606V26.6955H170.014V22.6415H173.442V17.2676H178.065V22.6101H183.239V26.6955H178.049Z" fill="white"/>
<path d="M132.005 26.9629V40.5706H127.806V35.0081C126.234 40.0206 121.925 40.932 118.905 40.932C117.198 40.9342 115.507 40.589 113.937 39.9174C112.368 39.2457 110.951 38.2617 109.774 37.0254C108.597 35.789 107.684 34.3261 107.091 32.7258C106.498 31.1255 106.238 29.4214 106.325 27.7172C106.325 19.8606 112.065 14.5967 119.959 14.5967C125.683 14.5967 130.448 17.7393 131.69 23.0818L127.287 25.0302C126.186 20.8034 124.001 18.9807 119.66 18.9807C114.235 18.9807 111.263 21.4476 111.263 27.7329C111.263 34.0182 113.669 36.7837 119.943 36.7837C123.922 36.7837 126.91 34.8038 127.366 31.0327H120.053V26.9629H132.005Z" fill="white"/>
<path d="M147.352 22.61V26.9939C146.594 26.7376 145.792 26.636 144.993 26.6954C142.084 26.6954 140.04 28.6753 140.04 33.2007V40.633H135.322V22.6414H140.04V27.7168C140.496 25.0141 141.817 22.3428 145.245 22.3428C145.958 22.3119 146.67 22.4022 147.352 22.61Z" fill="white"/>
<path d="M162.905 31.645C162.905 28.0624 161.332 26.4754 157.951 26.4754C154.57 26.4754 153.108 28.0467 153.108 31.645C153.108 35.2433 154.681 36.7203 157.951 36.7203C161.222 36.7203 162.905 35.149 162.905 31.645ZM167.387 22.6413V40.5701H162.748V36.6575C162.315 37.9397 161.48 39.0482 160.367 39.8182C159.253 40.5882 157.921 40.9787 156.568 40.9315C151.457 40.9315 148.438 37.2075 148.438 31.645C148.438 26.0825 151.347 22.2171 156.3 22.2171C157.716 22.1606 159.112 22.5674 160.276 23.3756C161.439 24.1839 162.307 25.3494 162.748 26.6953V22.6413H167.387Z" fill="white"/>
<path d="M178.128 26.6955V36.4219H182.845V40.5231H179.024C178.284 40.5644 177.543 40.4486 176.85 40.1832C176.158 39.9179 175.53 39.509 175.007 38.9836C174.484 38.4581 174.078 37.8279 173.816 37.1345C173.555 36.4411 173.443 35.7002 173.489 34.9606V26.6955H170.061V22.6415H173.489V17.2676H178.128V22.6101H183.286V26.6955H178.128Z" fill="white"/>
<path d="M199.483 31.6457C199.483 28.0631 197.911 26.476 194.53 26.476C191.149 26.476 189.686 28.0474 189.686 31.6457C189.686 35.244 191.259 36.721 194.53 36.721C197.8 36.721 199.483 35.1497 199.483 31.6457ZM203.965 22.642V40.5708H199.342V36.6582C198.908 37.943 198.071 39.0534 196.954 39.8237C195.838 40.594 194.502 40.9828 193.146 40.9322C188.035 40.9322 185.016 37.2081 185.016 31.6457C185.016 26.0832 187.925 22.2178 192.878 22.2178C194.296 22.163 195.693 22.5702 196.859 23.378C198.024 24.1857 198.896 25.3503 199.342 26.696V22.642H203.965Z" fill="white"/>
</svg>
